!!!!SEGMENT: pl-wn--sd-xvi-qu-273--015_gomolka-mikolaj--kto-bedzie-w-twoim-mieszkaniu-przebywal.krn
!!!cenid: 15xx:220
!!!COM: Gomółka, Mikołaj
!!!COM-rismid: pe30013343
!!!CDT: ~1535->1591/04/30
!!!CNT: Polish
!!!GTL: Melodiae na psalterz polski
!!!OTL: XV. Kto będzie w Twoim mieszkaniu przebywał?
!!!PDT: 1580
!!!AGN: Sacred
!!!SMS-siglum: PL-Wn
!!!SMS-shelfmark: SD XVI.Qu.273
!!!SMS-shelfwork: 015 G
!!!NIFC-rismid:
!!!URL-scan: https://polona.pl/item/melodiae-na-psalterz-polski,Nzk3MTM4ODQ/12/#item
!!!ONB-nifc: Melodiae na psalterz polski
**kern	**text	**kern	**text	**kern	**text	**kern	**text
*part4	*part4	*part3	*part3	*part2	*part2	*part1	*part1
*staff4	*staff4	*staff3	*staff3	*staff2	*staff2	*staff1	*staff1
*clefF3	*	*clefC3	*	*clefC1	*	*clefG2	*
*k[b-]	*	*k[b-]	*	*k[b-]	*	*k[b-]	*
*f:	*	*f:	*	*f:	*	*f:	*
*M4/2	*	*M4/2	*	*M4/2	*	*M4/2	*
*met(c|)	*	*met(c|)	*	*met(c|)	*	*met(c|)	*
=1-	=1-	=1-	=1-	=1-	=1-	=1-	=1-
2.G\	Kto	1g\	Kto	1b-\	Kto	2.g/	Kto
4F/	.	.	.	.	.	4a/	.
4G\	bę-	2g\	bę-	2b-\	bę-	4b-/	bę-
4A\	.	.	.	.	.	4cc\	.
2B-\	-dźie	2f\	-d(źie)	2b-\	-dź(ie)	1dd\	-d(źie)
=2-	=2-	=2-	=2-	=2-	=2-	=2-	=2-
2G\	w Two-	1e\	w Two-	2b-\	w two-	.	.
2A\	.	.	.	4a\	.	2cc\	w Two-
.	.	.	.	4g\	.	.	.
2B-\	-im	2d\	(-im)	2f/	(-im)	2dd\	(-im)
2F\	miesz-	2a\	miesz-	2cc\	miesz-	1ff\	miesz-
=3-	=3-	=3-	=3-	=3-	=3-	=3-	=3-
2B-\	(-ká-	2f\	-ká-	2dd\	-ká-	.	.
2A\	.	2a\	.	2cc\	.	2ff\	-ká-
2B-\	-niu)	4g\	(-niu)	2b-\	(-niu)	2dd\	(-niu)
.	.	4f\	.	.	.	.	.
2d\	prze-	4f\	prze-	2f/	prze-	2ff\	prze-
.	.	8e\L	.	.	.	.	.
.	.	8d\J	.	.	.	.	.
=4-	=4-	=4-	=4-	=4-	=4-	=4-	=4-
1c\	-by-	2.e\	-by-	2.g\	(-by-	1ee\	(-by-
.	.	4f\	.	4a\	.	.	.
2B-\	(-wał?)	2g\	-wał?	2b-\	-wał?)	2dd\	-wał?)
2B-\	Kto	2.f\	Kto	2b-\	Kto	4b-/	Kto
.	.	.	.	.	.	2cc\	.
=5-	=5-	=5-	=5-	=5-	=5-	=5-	=5-
2F/	bę-	.	.	2a\	bę-	.	.
.	.	4e\	bę-	.	.	4cc\	bę-
2B-\	-dźie	4e\	-dźie	4e/	-dzie	2cc\	(-dźie)
.	.	8d\L	.	4f/	.	.	.
.	.	8c\J	.	.	.	.	.
!!LO:LB:g=original
1G\	twe-	1d\	twe-	2.g/	twe-	2cc\	twe-
.	.	.	.	.	.	2b-\	.
.	.	.	.	4f/	.	.	.
=6-	=6-	=6-	=6-	=6-	=6-	=6-	=6-
2C/	-go	2c/	-go	2e/	-go	2cc\	-go
2c\	pà-	2e\	pà-	2g/	pà-	2cc\	pà-
2c\	-ła-	2e\	-ła-	2g/	-ła-	2cc\	-ła-
2A\	-cu	2f\	-cu	1a\	-cu	2cc\	(-cu)
=7-	=7-	=7-	=7-	=7-	=7-	=7-	=7-
2d\	świę-	2f\	świę-	.	.	2a/	swię-
2d\	-té-	4e\	-té-	4g/	świę-	2b-/	-té-
.	.	4d\	.	4f/	-té-	.	.
2c\	(-go,)	2e\	-go,	2g/	(-go,)	2cc\	(-go,)
2.c\	Wiecz-	2g\	Wiecz-	2cc\	Wiecz-	2ee\	Wie(cz-
=8-	=8-	=8-	=8-	=8-	=8-	=8-	=8-
.	.	2g\	-ny	2.cc\	-ny	2ee\	-ny)
4B-\	.	.	.	.	.	.	.
4A\	-ny	2.a\	mój	.	.	2cc\	mój
4G\	.	.	.	4b-\	mój	.	.
4F/	mój	.	.	1.a\	bo-	1.ff\	bo-
4E/	.	4g\	.	.	.	.	.
4D/	.	4f\	.	.	.	.	.
4C/	.	4e\	.	.	.	.	.
=9-	=9-	=9-	=9-	=9-	=9-	=9-	=9-
1D/	Bo-	1f\	bo-	.	.	.	.
.	.	.	.	2b-\	.	4ee\	.
.	.	.	.	.	.	4dd\	.
2C/	-że,	2g\	-że	4cc\	-że,	2ee\	-że,
.	.	.	.	4b-\	.	.	.
2F\	we-	2c/	we-	4a\	.	2.ff\	we-
.	.	.	.	4g\	.	.	.
=10-	=10-	=10-	=10-	=10-	=10-	=10-	=10-
2.B-\	-se-	1d\	-se-	2f/	we-	.	.
.	.	.	.	.	.	4ee\	-se-
.	.	.	.	2.b-\	-se-	4dd\	.
4A\	.	.	.	.	.	4cc\	.
2.G\	.	1d\	-la	.	.	4dd\	.
.	.	.	.	4a\	.	4cc\	.
.	.	.	.	2g\	-la	4b-/	.
4F/	.	.	.	.	.	4a/	.
=11-	=11-	=11-	=11-	=11-	=11-	=11-	=11-
2E/	-la	1e\	zà-	4c/	zà-	2g/	-la
.	.	.	.	4d/	.	.	.
2C/	zà-	.	.	4e/	.	1cc\	zà-
.	.	.	.	8d/L	.	.	.
.	.	.	.	8c/J	.	.	.
1G\	-ży-	1d\	-ży-	4d/	-ży-	.	.
.	.	.	.	2g/	.	.	.
.	.	.	.	.	.	2b-/	-ży-
.	.	.	.	4f/	.	.	.
=12-	=12-	=12-	=12-	=12-	=12-	=12-	=12-
000C/	-wał	00c\;	-wał.	000e/	-wał?	000cc\	-wał.
.	.	00c\;	.	.	.	.	.
==-	==-	==-	==-	==-	==-	==-	==-
*-	*-	*-	*-	*-	*-	*-	*-
!!!system-decoration: s1,s2,s3,s4
!!!RDF**kern: > = above
!!!ENC: Leszek Kubiak
!!!END: data 2020-02-04
